!!!COM: Lassus, Rudolphus
!!!CDT: 1563-1625
!!!OPR: Geistliche Psalmen mit dreyen Stimmen
!!!ONM: 26
!!!OTL@@LA: Dominus illuminatio mea
!!!OTL-incipit@@DE: Gott ist mein liecht mein trost und hail
**kern	**text	**kern	**text	**kern	**text
*Ivox	*	*Ivox	*	*Ivox	*
*I"Bassus	*	*I"Tenor	*	*I"Cantus	*
*I'B	*	*I'T	*	*I'C	*
*clefC3	*	*clefC1	*	*clefC1	*
*k[]	*	*k[]	*	*k[]	*
*d:dor	*	*d:dor	*	*d:dor	*
*M2/1	*	*M2/1	*	*M2/1	*
*met(C|)	*	*met(C|)	*	*met(C|)	*
*MM180	*	*MM180	*	*MM180	*
2.r]	.	4f	.	4c]	.
.	.	4g	.	2c	Mein
.	.	4a	.	.	.
1G	mein	1b	.	2d	le-
.	.	.	.	2d	-ben
=14	=14	=14	=14	=14	=14
2A	le-	0r	.	2f	steht
2B	-ben	.	.	2g	in
2c	steht	.	.	1a	sei-
2d	in	.	.	.	.
=15	=15	=15	=15	=15	=15
2e	sei-	1c	Mein	2g	-ner
2A	-ner	.	.	2e	hut/
1G	hut/	2d	le-	2r	.
*	*	*	*	*	*ij
.	.	2e	-ben	2g	mein
=16	=16	=16	=16	=16	=16
2r	.	2f	steht	2a	le-
2c	in	2g	in	2e	-ben
4F	sei-	1a	sei-	2f	steht
4G	.	.	.	.	.
4A	.	.	.	4c	in
4B	.	.	.	4d	.
=17	=17	=17	=17	=17	=17
0c	.	2g	-ner	4e	.
.	.	.	.	4f	.
.	.	2e	in	1g	.
.	.	2.a	sei-	.	.
.	.	.	.	1f	sei-
.	.	4a	-ner	.	.
=18	=18	=18	=18	=18	=18
1c	-ner	1g	hut/	.	.
.	.	.	.	2e	-ner
1F	hut/	2r	.	2.f	hut/
*	*	*	*	*	*Xij
!	!	!LO:TX:a:i:t=(c.f.)	!	!	!
.	.	2a	Für	.	.
.	.	.	.	4e	.
=19	=19	=19	=19	=19	=19
1r	.	2a	wem	4d	.
.	.	.	.	4e	.
.	.	2a	sol	4f	.
.	.	.	.	4d	.
2r	.	2g	mir	2e	.
!LO:TX:a:i:t=c.f.	!	!	!	!	!
2d	für	2.a	dann	2f	für
=20	=20	=20	=20	=20	=20
2d	wem	.	.	2.f	wem
.	.	4a	auß	.	.
2d	soll	2b	miß-	.	.
.	.	.	.	4f	sol
2c	mir	4cc	-trau-	2e	mir
.	.	4b	.	.	.
2d	dann	4a	.	2f	dann
.	.	4b	.	.	.
=21	=21	=21	=21	=21	=21
2e	auß	4cc	.	2g	auß
.	.	4b	.	.	.
2f	miß-	2.dd	.	2a	miß-
1e	-traw-	.	.	1g	-traw-
.	.	8cc#i	.	.	.
.	.	8b	.	.	.
.	.	2cc#i	.	.	.
=22	=22	=22	=22	=22	=22
[2d	-en/	[2dd	-en/	2a	-en
*-	*-	*-	*-	*-	*-
!!!RDF**kern: l = terminal long
!!!RDF**kern: i = editorial accidental
